X: 1
T:Spur of the Moment
M:C
L:1/8
Q:80
C:Michael Grey
S:Reel
K:HP
[| f|
{g}B3/2c/2{g}d3/2c/2{G}c3/2d/2{g}c/2{d}A3/2|
{g}B3/2c/2{g}d3/2c/2{gBG}B2{g}c3/2d/2|
e3/2{g}c/2{G}c3/2B/2{g}A3/2e/2{g}c/2{d}A3/2|  !
e3/2{g}c/2{G}c3/2B/2{gAGAG}A2f2{g}B3/2c/2{g}d3/2c/2{G}c3/2d/2{g}c/2{d}A3
/2|
{g}B3/2c/2{g}d3/2c/2{gBG}B2{g}c3/2d/2|
{g}e3/2f/2{gef}e3/2A/2{gAGAG}A2{g}e3/2c/2|  !
{G}c3/2d/2{g}c/2{d}A3/2{GdG}B3|] [|
f|
{g}f2B{G}Bd3/2{G}d/2c/2{g}B3/2|
{gBG}B3/2d/2{G}d3/2c/2{g}B2{g}c3/2d/2|  !
e3/2{g}c/2{G}c3/2B/2{g}A3/2e/2{g}c/2{d}A3/2|
e3/2{g}c/2{G}c3/2B/2{gAGAG}A2f2{g}f2B{G}Bd3/2{G}d/2c/2{g}B3/2|
{gBG}B3/2d/2{G}d3/2c/2{g}B2{g}c3/2d/2|  !
{g}e3/2f/2{gef}e3/2A/2{gAGAG}A2{g}e3/2c/2|
{G}c3/2d/2{g}c/2{d}A3/2{GdG}B3|]
